X:379
T:Air by Pleyel. RH.379
T:Pleyel Air,A. RH.379
R:air
S:Rev.R.Harrison’s MS,c1815,Cumbria
O:England
A:Temple Sowerby,Cumbria
Z:vmp.Simon Wilson. Review PJH, 2008.
M:2/4
L:1/8
Q:1/4=70
K:G
D|GG BB|d>e/d/ c>A|BG AF|F2 GD|\
GG ge|d>e/d/ ^cz/g/|fd e^c|^c2d||!
D|dd BB|c>e Az/c/|BG cB|B2 A D|\
GG BB|d>e/d/ c>A|BG AF|F2G|]

